images/modus.logo.svg

<?xml version="1.0" encoding="UTF-8"?>
<svg width="497px" height="59px" viewBox="0 0 497 59" version="1.1" xmlns="http://www.w3.org/2000/svg" xmlns:xlink="http://www.w3.org/1999/xlink">
    <!-- Generator: Sketch 42 (36781) - http://www.bohemiancoding.com/sketch -->
    <title>Page 1</title>
    <desc>Created with Sketch.</desc>
    <defs>
        <polygon id="path-1" points="41.2872 40 3.0592 40 3.0592 3.6088 41.2872 3.6088 41.2872 40"></polygon>
        <polygon id="path-3" points="1.8908 36 34.3188 36 34.3188 0.4296 1.8908 0.4296"></polygon>
        <polygon id="path-5" points="3.1788 40 29.9588 40 29.9588 3.6084 3.1788 3.6084"></polygon>
        <polygon id="path-7" points="20.4738 40 36.996 40 36.996 3.608 3.9516 3.608 3.9516 40 20.4738 40"></polygon>
    </defs>
    <g id="Page-1" stroke="none" stroke-width="1" fill="none" fill-rule="evenodd">
        <g>
            <path d="M81.84,9.4248 L91.24,9.4248 L100.712,33.3408 C101.804,36.2008 103.164,40.4288 103.164,40.4288 L103.3,40.4288 C103.3,40.4288 104.596,36.2008 105.684,33.3408 L115.156,9.4248 L124.56,9.4248 L128.444,57.8008 L119.72,57.8008 L117.672,30.7488 C117.472,27.5488 117.608,23.2568 117.608,23.2568 L117.472,23.2568 C117.472,23.2568 116.04,27.9568 114.884,30.7488 L107.048,49.4888 L99.348,49.4888 L91.584,30.7488 C90.424,27.9568 88.924,23.1888 88.924,23.1888 L88.788,23.1888 C88.788,23.1888 88.924,27.5488 88.72,30.7488 L86.672,57.8008 L77.884,57.8008 L81.84,9.4248 Z" id="Fill-1" fill="#000000"></path>
            <g id="Group-5" transform="translate(128.000000, 18.622000)">
                <mask id="mask-2" fill="white">
                    <use xlink:href="#path-1"></use>
                </mask>
                <g id="Clip-4"></g>
                <path d="M22.2072,32.6408 C27.7912,32.6408 32.4952,28.2728 32.4952,21.8048 C32.4952,15.3968 27.7912,10.9688 22.2072,10.9688 C16.5472,10.9688 11.8512,15.3968 11.8512,21.8048 C11.8512,28.2728 16.5472,32.6408 22.2072,32.6408 M22.1352,3.6088 C32.7672,3.6088 41.2872,11.1768 41.2872,21.8048 C41.2872,32.5008 32.7672,40.0008 22.2072,40.0008 C11.5752,40.0008 3.0592,32.5008 3.0592,21.8048 C3.0592,11.1768 11.5752,3.6088 22.1352,3.6088" id="Fill-3" fill="#000000" mask="url(#mask-2)"></path>
            </g>
            <path d="M190.8712,51.3252 C195.3672,51.3252 199.5952,48.0612 199.5952,40.3572 C199.5952,34.9732 196.7312,29.6612 190.9392,29.6612 C186.1712,29.6612 182.2152,33.5452 182.2152,40.4252 C182.2152,47.0372 185.7592,51.3252 190.8712,51.3252 M189.2352,22.2332 C196.8672,22.2332 199.2512,26.6612 199.2512,26.6612 L199.3912,26.6612 C199.3912,26.6612 199.3192,25.7772 199.3192,24.6852 L199.3192,9.4252 L207.9752,9.4252 L207.9752,57.8012 L199.7952,57.8012 L199.7952,54.9332 C199.7952,53.6452 199.9352,52.6932 199.9352,52.6932 L199.7952,52.6932 C199.7952,52.6932 196.8672,58.6212 188.8952,58.6212 C179.4912,58.6212 173.4992,51.1932 173.4992,40.4252 C173.4992,29.3892 180.0392,22.2332 189.2352,22.2332" id="Fill-6" fill="#000000"></path>
            <g id="Group-10" transform="translate(212.000000, 22.622000)">
                <mask id="mask-4" fill="white">
                    <use xlink:href="#path-3"></use>
                </mask>
                <g id="Clip-9"></g>
                <path d="M1.8908,0.4296 L10.5388,0.4296 L10.5388,21.0056 C10.5388,25.2256 11.6348,28.0936 15.9228,28.0936 C22.1908,28.0936 25.6628,22.5696 25.6628,16.3696 L25.6628,0.4296 L34.3188,0.4296 L34.3188,35.1816 L26.0068,35.1816 L26.0068,31.2256 C26.0068,29.8656 26.1388,28.7736 26.1388,28.7736 L26.0068,28.7736 C24.3068,32.3816 19.8748,36.0016 13.9508,36.0016 C6.5228,36.0016 1.8908,32.2496 1.8908,22.7776 L1.8908,0.4296 Z" id="Fill-8" fill="#000000" mask="url(#mask-4)"></path>
            </g>
            <g id="Group-13" transform="translate(248.000000, 18.622000)">
                <mask id="mask-6" fill="white">
                    <use xlink:href="#path-5"></use>
                </mask>
                <g id="Clip-12"></g>
                <path d="M7.1308,28.8204 C7.1308,28.8204 10.9428,32.6404 16.6068,32.6404 C19.0508,32.6404 21.1628,31.5484 21.1628,29.5004 C21.1628,24.3244 4.2708,25.0044 4.2708,13.8324 C4.2708,7.3604 10.0588,3.6084 17.5508,3.6084 C25.3868,3.6084 29.2108,7.5644 29.2108,7.5644 L26.0068,13.9684 C26.0068,13.9684 22.8028,10.9684 17.4908,10.9684 C15.2388,10.9684 13.0588,11.9204 13.0588,14.1004 C13.0588,19.0084 29.9588,18.4004 29.9588,29.5684 C29.9588,35.3604 24.9108,40.0004 16.6708,40.0004 C8.0148,40.0004 3.1788,34.8844 3.1788,34.8844 L7.1308,28.8204 Z" id="Fill-11" fill="#000000" mask="url(#mask-6)"></path>
            </g>
            <path d="M320.8576,8.6084 C332.6456,8.6084 338.7096,15.2164 338.7096,15.2164 L334.4896,21.7564 C334.4896,21.7564 328.9656,16.6444 321.2696,16.6444 C311.0456,16.6444 305.0536,24.2764 305.0536,33.2764 C305.0536,42.4724 311.2496,50.5764 321.3336,50.5764 C329.7176,50.5764 335.3736,44.4484 335.3736,44.4484 L340.0056,50.7844 C340.0056,50.7844 333.3256,58.6204 320.9976,58.6204 C306.2096,58.6204 295.9896,47.6444 295.9896,33.4084 C295.9896,19.3724 306.6216,8.6084 320.8576,8.6084" id="Fill-14" fill="#000000"></path>
            <path d="M344.6464,23.0516 L352.9584,23.0516 L352.9584,29.0436 C352.9584,30.3396 352.8264,31.4956 352.8264,31.4956 L352.9584,31.4956 C354.5304,26.5276 358.6864,22.5756 363.9984,22.5756 C364.8184,22.5756 365.5664,22.7116 365.5664,22.7116 L365.5664,31.2276 C365.5664,31.2276 364.6864,31.0916 363.5224,31.0916 C359.8424,31.0916 355.6944,33.1996 354.0544,38.3796 C353.5064,40.0836 353.3024,41.9956 353.3024,44.0356 L353.3024,57.8036 L344.6464,57.8036 L344.6464,23.0516 Z" id="Fill-16" fill="#000000"></path>
            <path d="M392.248,36.134 C392.116,31.434 389.184,28.91 385.364,28.91 C380.936,28.91 377.872,31.638 377.052,36.134 L392.248,36.134 Z M385.576,22.23 C395.584,22.23 400.968,29.526 400.968,38.722 C400.968,39.746 400.764,42.058 400.764,42.058 L376.78,42.058 C377.328,48.122 382.028,51.262 387.208,51.262 C392.796,51.262 397.224,47.442 397.224,47.442 L400.56,53.646 C400.56,53.646 395.248,58.622 386.592,58.622 C375.076,58.622 367.928,50.31 367.928,40.426 C367.928,29.726 375.216,22.23 385.576,22.23 L385.576,22.23 Z" id="Fill-18" fill="#000000"></path>
            <path d="M419.162,51.872 C423.726,51.872 426.99,46.964 426.99,42.744 L426.99,41.928 L425.498,41.928 C421.07,41.928 413.914,42.536 413.914,47.372 C413.914,49.692 415.614,51.872 419.162,51.872 M425.77,35.996 L426.926,35.996 L426.926,35.52 C426.926,30.952 424.062,29.388 420.246,29.388 C415.27,29.388 410.71,32.724 410.71,32.724 L407.442,26.528 C407.442,26.528 412.818,22.232 421.07,22.232 C430.194,22.232 435.514,27.28 435.514,36.064 L435.514,57.8 L427.538,57.8 L427.538,54.936 C427.538,53.576 427.67,52.488 427.67,52.488 L427.538,52.488 C427.606,52.488 424.882,58.62 416.982,58.62 C410.778,58.62 405.186,54.732 405.186,47.788 C405.186,36.748 420.114,35.996 425.77,35.996" id="Fill-20" fill="#000000"></path>
            <path d="M443.7012,30.4736 L439.2012,30.4736 L439.2012,23.5976 L443.9052,23.5976 L443.9052,13.5816 L452.3572,13.5816 L452.3572,23.5976 L460.2652,23.5976 L460.2652,30.4736 L452.3572,30.4736 L452.3572,43.9696 C452.3572,49.6936 456.8492,50.5136 459.2412,50.5136 C460.1932,50.5136 460.8012,50.3736 460.8012,50.3736 L460.8012,57.9336 C460.8012,57.9336 459.7772,58.1456 458.1452,58.1456 C453.3012,58.1456 443.7012,56.7096 443.7012,45.0576 L443.7012,30.4736 Z" id="Fill-22" fill="#000000"></path>
            <g id="Group-26" transform="translate(460.000000, 18.622000)">
                <mask id="mask-8" fill="white">
                    <use xlink:href="#path-7"></use>
                </mask>
                <g id="Clip-25"></g>
                <path d="M28.2716,17.512 C28.1396,12.812 25.2076,10.288 21.3956,10.288 C16.9596,10.288 13.8956,13.016 13.0836,17.512 L28.2716,17.512 Z M21.5996,3.608 C31.6156,3.608 36.9996,10.904 36.9996,20.1 C36.9996,21.124 36.7876,23.436 36.7876,23.436 L12.8116,23.436 C13.3516,29.5 18.0516,32.64 23.2316,32.64 C28.8196,32.64 33.2476,28.82 33.2476,28.82 L36.5836,35.024 C36.5836,35.024 31.2716,40 22.6156,40 C11.0996,40 3.9516,31.688 3.9516,21.804 C3.9516,11.104 11.2396,3.608 21.5996,3.608 L21.5996,3.608 Z" id="Fill-24" fill="#000000" mask="url(#mask-8)"></path>
            </g>
            <path d="M31.5968,30.4308 C31.2048,30.4308 30.8168,30.4188 30.4288,30.3948 C30.2568,33.3348 29.6688,36.1588 28.7248,38.8188 C29.6688,38.9148 30.6288,38.9628 31.5968,38.9628 C47.3208,38.9628 60.1048,26.4308 60.5368,10.8148 C57.2208,11.2508 54.1608,12.4948 51.5568,14.3428 C49.5608,23.5308 41.3688,30.4308 31.5968,30.4308" id="Fill-27" fill="#FF3300"></path>
            <path d="M34.2332,28.6732 C34.2332,28.7052 34.2372,28.7372 34.2372,28.7732 C37.1172,28.3652 39.7892,27.3052 42.1012,25.7492 C44.2012,17.0692 51.5132,10.4252 60.5372,9.3252 C60.4572,6.0692 59.8492,2.9492 58.7812,0.0492 C44.8812,2.1732 34.2332,14.1812 34.2332,28.6732" id="Fill-29" fill="#990033"></path>
            <path d="M63.1932,57.5956 C51.2652,57.5956 41.0252,50.3836 36.5892,40.0836 C38.7572,39.7276 40.8452,39.1356 42.8332,38.3436 C45.8892,46.6236 53.8532,52.5236 63.1932,52.5236 L63.1932,57.5956 Z" id="Fill-31" fill="#FF9900"></path>
            <path d="M0,57.5964 C15.996,57.5964 28.96,44.6324 28.96,28.6364 C28.96,17.7004 22.896,8.1804 13.948,3.2564 C13.14,5.3564 12.692,7.6364 12.692,10.0164 C12.692,11.1884 12.8,12.3364 13.008,13.4524 C18.284,17.4124 21.7,23.7164 21.7,30.8244 C21.7,42.8084 11.984,52.5244 0,52.5244 L0,57.5964 Z" id="Fill-33" fill="#006699"></path>
            <path d="M19.4192,36.2812 C19.9112,34.5412 20.1792,32.7092 20.1792,30.8132 C20.1792,29.3772 20.0232,27.9732 19.7352,26.6212 C14.5552,22.9132 11.1672,16.8492 11.1672,10.0052 C11.1672,7.3692 11.6752,4.8532 12.5872,2.5372 C10.0472,1.3092 7.2992,0.4412 4.4152,0.0012 C3.2632,3.1172 2.6352,6.4892 2.6352,10.0052 C2.6352,21.6492 9.5112,31.6812 19.4192,36.2812" id="Fill-35" fill="#009900"></path>
        </g>
    </g>
</svg>

<svg width="497" height="59" xmlns="http://www.w3.org/2000/svg" xmlns:xlink="http://www.w3.org/1999/xlink"><defs><path id="a" d="M41.287 40H3.059V3.609h38.228V40z"/><path id="c" d="M1.891 36h32.428V.43H1.891z"/><path id="e" d="M3.179 40h26.78V3.608H3.179z"/><path id="g" d="M20.474 40h16.522V3.608H3.952V40h16.522z"/></defs><g fill="none" fill-rule="evenodd"><path d="M81.84 9.425h9.4l9.472 23.916c1.092 2.86 2.452 7.088 2.452 7.088h.136s1.296-4.228 2.384-7.088l9.472-23.916h9.404l3.884 48.376h-8.724l-2.048-27.052c-.2-3.2-.064-7.492-.064-7.492h-.136s-1.432 4.7-2.588 7.492l-7.836 18.74h-7.7l-7.764-18.74c-1.16-2.792-2.66-7.56-2.66-7.56h-.136s.136 4.36-.068 7.56L86.672 57.8h-8.788L81.84 9.425z" fill="#000"/><g transform="translate(128 18.622)"><mask id="b" fill="#fff"><use xlink:href="#a"/></mask><path d="M22.207 32.64c5.584 0 10.288-4.367 10.288-10.835 0-6.408-4.704-10.836-10.288-10.836-5.66 0-10.356 4.428-10.356 10.836 0 6.468 4.696 10.836 10.356 10.836m-.072-29.032c10.632 0 19.152 7.568 19.152 18.196C41.287 32.5 32.767 40 22.207 40 11.575 40 3.06 32.5 3.06 21.805c0-10.628 8.516-18.196 19.076-18.196" fill="#000" mask="url(#b)"/></g><path d="M190.871 51.325c4.496 0 8.724-3.264 8.724-10.968 0-5.384-2.864-10.696-8.656-10.696-4.768 0-8.724 3.884-8.724 10.764 0 6.612 3.544 10.9 8.656 10.9m-1.636-29.092c7.632 0 10.016 4.428 10.016 4.428h.14s-.072-.884-.072-1.976V9.425h8.656v48.376h-8.18v-2.868c0-1.288.14-2.24.14-2.24h-.14s-2.928 5.928-10.9 5.928c-9.404 0-15.396-7.428-15.396-18.196 0-11.036 6.54-18.192 15.736-18.192" fill="#000"/><g transform="translate(212 22.622)"><mask id="d" fill="#fff"><use xlink:href="#c"/></mask><path d="M1.89.43h8.649v20.576c0 4.22 1.096 7.088 5.384 7.088 6.268 0 9.74-5.524 9.74-11.724V.43h8.656v34.752h-8.312v-3.956c0-1.36.132-2.452.132-2.452h-.132c-1.7 3.608-6.132 7.228-12.056 7.228-7.428 0-12.06-3.752-12.06-13.224V.43z" fill="#000" mask="url(#d)"/></g><g transform="translate(248 18.622)"><mask id="f" fill="#fff"><use xlink:href="#e"/></mask><path d="M7.13 28.82s3.813 3.82 9.477 3.82c2.444 0 4.556-1.092 4.556-3.14 0-5.176-16.892-4.496-16.892-15.668 0-6.472 5.788-10.224 13.28-10.224 7.836 0 11.66 3.956 11.66 3.956l-3.204 6.404s-3.204-3-8.516-3c-2.252 0-4.432.952-4.432 3.132 0 4.908 16.9 4.3 16.9 15.468C29.959 35.36 24.91 40 16.67 40c-8.656 0-13.492-5.116-13.492-5.116L7.13 28.82z" fill="#000" mask="url(#f)"/></g><path d="M320.858 8.608c11.788 0 17.852 6.608 17.852 6.608l-4.22 6.54s-5.524-5.112-13.22-5.112c-10.224 0-16.216 7.632-16.216 16.632 0 9.196 6.196 17.3 16.28 17.3 8.384 0 14.04-6.128 14.04-6.128l4.632 6.336s-6.68 7.836-19.008 7.836c-14.788 0-25.008-10.976-25.008-25.212 0-14.036 10.632-24.8 24.868-24.8m23.788 14.444h8.312v5.992c0 1.296-.132 2.452-.132 2.452h.132c1.572-4.968 5.728-8.92 11.04-8.92.82 0 1.568.136 1.568.136v8.516s-.88-.136-2.044-.136c-3.68 0-7.828 2.108-9.468 7.288-.548 1.704-.752 3.616-.752 5.656v13.768h-8.656V23.052zm47.602 13.082c-.132-4.7-3.064-7.224-6.884-7.224-4.428 0-7.492 2.728-8.312 7.224h15.196zm-6.672-13.904c10.008 0 15.392 7.296 15.392 16.492 0 1.024-.204 3.336-.204 3.336H376.78c.548 6.064 5.248 9.204 10.428 9.204 5.588 0 10.016-3.82 10.016-3.82l3.336 6.204s-5.312 4.976-13.968 4.976c-11.516 0-18.664-8.312-18.664-18.196 0-10.7 7.288-18.196 17.648-18.196zm33.586 29.642c4.564 0 7.828-4.908 7.828-9.128v-.816h-1.492c-4.428 0-11.584.608-11.584 5.444 0 2.32 1.7 4.5 5.248 4.5m6.608-15.876h1.156v-.476c0-4.568-2.864-6.132-6.68-6.132-4.976 0-9.536 3.336-9.536 3.336l-3.268-6.196s5.376-4.296 13.628-4.296c9.124 0 14.444 5.048 14.444 13.832V57.8h-7.976v-2.864c0-1.36.132-2.448.132-2.448h-.132c.068 0-2.656 6.132-10.556 6.132-6.204 0-11.796-3.888-11.796-10.832 0-11.04 14.928-11.792 20.584-11.792m17.931-5.522h-4.5v-6.876h4.704V13.582h8.452v10.016h7.908v6.876h-7.908V43.97c0 5.724 4.492 6.544 6.884 6.544.952 0 1.56-.14 1.56-.14v7.56s-1.024.212-2.656.212c-4.844 0-14.444-1.436-14.444-13.088V30.474z" fill="#000"/><g transform="translate(460 18.622)"><mask id="h" fill="#fff"><use xlink:href="#g"/></mask><path d="M28.272 17.512c-.132-4.7-3.064-7.224-6.876-7.224-4.436 0-7.5 2.728-8.312 7.224h15.188zM21.6 3.608C31.616 3.608 37 10.904 37 20.1c0 1.024-.212 3.336-.212 3.336H12.812c.54 6.064 5.24 9.204 10.42 9.204 5.588 0 10.016-3.82 10.016-3.82l3.336 6.204S31.272 40 22.616 40C11.1 40 3.952 31.688 3.952 21.804c0-10.7 7.288-18.196 17.648-18.196z" fill="#000" mask="url(#h)"/></g><path d="M31.597 30.43c-.392 0-.78-.011-1.168-.035a30.465 30.465 0 0 1-1.704 8.424 28.41 28.41 0 0 0 2.872.144c15.724 0 28.508-12.532 28.94-28.148a20 20 0 0 0-8.98 3.528C49.56 23.53 41.369 30.43 31.597 30.43" fill="#F30"/><path d="M34.233 28.673c0 .032.004.064.004.1a18.79 18.79 0 0 0 7.864-3.024c2.1-8.68 9.412-15.324 18.436-16.424A28.84 28.84 0 0 0 58.781.05c-13.9 2.124-24.548 14.132-24.548 28.624" fill="#903"/><path d="M63.193 57.596c-11.928 0-22.168-7.212-26.604-17.512a29.992 29.992 0 0 0 6.244-1.74c3.056 8.28 11.02 14.18 20.36 14.18v5.072z" fill="#F90"/><path d="M0 57.596c15.996 0 28.96-12.964 28.96-28.96 0-10.936-6.064-20.456-15.012-25.38a18.792 18.792 0 0 0-.94 10.196c5.276 3.96 8.692 10.264 8.692 17.372 0 11.984-9.716 21.7-21.7 21.7v5.072z" fill="#069"/><path d="M19.42 36.281a20.06 20.06 0 0 0 .315-9.66c-5.18-3.708-8.568-9.772-8.568-16.616 0-2.636.508-5.152 1.42-7.468A28.716 28.716 0 0 0 4.415.001a28.799 28.799 0 0 0-1.78 10.004c0 11.644 6.876 21.676 16.784 26.276" fill="#090"/></g></svg>
